svgs/thin/text-slash.svg

<svg xmlns="http://www.w3.org/2000/svg" viewBox="0 0 640 512"><!--! Font Awesome Pro 6.3.0 by @fontawesome - https://fontawesome.com License - https://fontawesome.com/license (Commercial License) Copyright 2023 Fonticons, Inc. --><path d="M636.1 497.7L314.9 241.7l10.54 8.381l-312.4-248.4C11.52 .5664 9.77 0 8.023 0C5.672 0 3.334 1.029 1.736 3.012c-2.75 3.469-2.172 8.5 1.281 11.25l623.1 496C628.5 511.4 630.2 512 631.1 512c2.344 0 4.688-1.031 6.266-3.016C641 505.5 640.4 500.5 636.1 497.7zM352 464H283.6l26.54-123.9l-13.97-11.1L267.3 464H192c-4.406 0-8 3.594-8 8s3.594 8.007 7.1 8.007h160c4.406 0 7.1-3.601 7.1-8.007S356.4 464 352 464zM160 48h196.4l-26.54 123.9l13.96 11.1L372.7 48H552c4.406 0 8 3.594 8 8v64C560 124.4 563.6 128 568 128S576 124.4 576 120v-64C576 42.77 565.2 32 552 32H160C155.6 32 152 35.58 152 40S155.6 48 160 48z"/></svg>

<svg xmlns="http://www.w3.org/2000/svg" viewBox="0 0 640 512"><!-- Font Awesome Pro 6.0.0-alpha2 by @fontawesome - https://fontawesome.com License - https://fontawesome.com/license (Commercial License) --><path d="M636.982 497.734L328.857 252.811V252.809L314.892 241.707V241.709L325.431 250.088L12.988 1.73C11.525 0.566 9.771 0 8.025 0C5.673 0 3.335 1.029 1.738 3.012C-1.012 6.48 -0.434 11.512 3.019 14.262L627.013 510.266C628.497 511.438 630.247 512 631.997 512C634.341 512 636.685 510.969 638.263 508.984C641.013 505.516 640.435 500.484 636.982 497.734ZM352.001 464H283.609L310.146 340.146L296.177 329.043L267.261 464H192.001C187.595 464 184.001 467.594 184.001 472S187.595 480 192.001 480H352.001C356.408 480 360.001 476.406 360.001 472S356.408 464 352.001 464ZM160.001 48H356.398L329.861 171.852L343.825 182.951L372.74 48H552.001C556.408 48 560.001 51.594 560.001 56V120C560.001 124.422 563.595 128 568.001 128S576.001 124.422 576.001 120V56C576.001 42.766 565.22 32 552.001 32H160.001C155.595 32 152.001 35.578 152.001 40S155.595 48 160.001 48Z"/></svg>
